packages/ui-solid/icons/channel_28.svg

<svg width="28" height="28" viewBox="0 0 28 28" fill="none" xmlns="http://www.w3.org/2000/svg">
<path fill-rule="evenodd" clip-rule="evenodd" d="M22.7951 5.83193C22.3907 5.17272 21.6652 4.82508 20.9375 4.91368C20.7664 4.93451 20.4724 5.04779 19.8999 5.45477C19.3414 5.85182 18.6353 6.43912 17.6406 7.26762L16.4789 8.2352V16.5191L17.8559 17.4895C18.8256 18.173 19.5101 18.6546 20.0502 18.9758C20.5996 19.3025 20.8815 19.388 21.0517 19.3981C21.7562 19.4401 22.4384 19.0783 22.8157 18.4351C22.9113 18.2721 23.0028 17.9722 23.0515 17.3196C23.0994 16.6772 23.1 15.8217 23.1 14.6135V9.97857C23.1 8.6629 23.0994 7.72673 23.0477 7.02808C22.9949 6.3134 22.8949 5.99464 22.7951 5.83193ZM14.6789 16.0859V8.71354H8.2566C7.58283 8.71354 7.12386 8.71405 6.76692 8.7391C6.41859 8.76355 6.23493 8.80815 6.10454 8.8637C5.63366 9.06432 5.25174 9.45274 5.05086 9.95156C4.99339 10.0943 4.94909 10.2915 4.92503 10.6543C4.90046 11.0246 4.9 11.4998 4.9 12.1917V13.7377C4.9 14.0623 4.90084 14.1674 4.90779 14.2479C4.99348 15.2399 5.75162 15.9944 6.66851 16.0781C6.74266 16.0849 6.84072 16.0859 7.15789 16.0859H14.6789ZM15.2532 6.91354L16.5194 5.85888C17.4764 5.06174 18.2354 4.42957 18.857 3.98768C19.4713 3.55099 20.0763 3.20524 20.72 3.12688C22.1648 2.95098 23.5663 3.64683 24.3294 4.89073C24.6673 5.44169 24.7862 6.13036 24.8428 6.89529C24.9 7.6684 24.9 8.67147 24.9 9.93985V14.6518C24.9 15.8132 24.9 16.736 24.8465 17.4535C24.7932 18.1686 24.6807 18.8133 24.3683 19.3459C23.6576 20.5575 22.3427 21.2782 20.9447 21.195C20.3265 21.1581 19.7354 20.8828 19.1302 20.5229C18.5228 20.1617 17.7813 19.6391 16.8514 18.9838L15.2937 17.8859H14.9V21.356C14.9 23.2892 13.3699 24.9 11.4295 24.9C10.7733 24.9 10.1171 24.7117 9.55572 24.3307C8.30868 23.4842 7.40321 22.7153 6.87463 21.5313C6.44229 20.5629 6.29923 19.3942 6.26613 17.8411C4.56172 17.5732 3.26507 16.1463 3.11447 14.4028C3.09993 14.2344 3.09996 14.0449 3.1 13.7804C3.1 13.7664 3.1 13.7522 3.1 13.7377L3.1 12.1613C3.09999 11.5072 3.09999 10.9721 3.12897 10.5351C3.15892 10.0838 3.22261 9.67287 3.38116 9.27916C3.75631 8.34761 4.47925 7.5996 5.39902 7.20773C5.79013 7.0411 6.19777 6.97462 6.64091 6.94352C7.06834 6.91352 7.59071 6.91353 8.22479 6.91354L15.2532 6.91354ZM8.0681 17.8859C8.10399 19.3237 8.23772 20.1691 8.51826 20.7975C8.8326 21.5016 9.37877 22.0351 10.5666 22.8414C10.815 23.01 11.1155 23.1 11.4295 23.1C12.3284 23.1 13.1 22.3433 13.1 21.356V17.8859H8.0681Z" fill="#007AFF"/>
</svg>

<svg xmlns="http://www.w3.org/2000/svg" width="28" height="28" fill="none"><path fill="currentColor" fill-rule="evenodd" d="M22.795 5.832a1.91 1.91 0 0 0-1.858-.918c-.17.02-.465.134-1.037.54-.559.398-1.265.985-2.26 1.814l-1.161.967v8.284l1.377.97c.97.684 1.654 1.166 2.194 1.487.55.326.831.412 1.002.422a1.92 1.92 0 0 0 1.764-.963c.095-.163.187-.463.236-1.115.047-.643.048-1.498.048-2.706V9.979c0-1.316 0-2.252-.052-2.95-.053-.716-.153-1.034-.253-1.197M14.68 16.086V8.714H8.257c-.674 0-1.133 0-1.49.025-.348.025-.532.07-.662.125-.471.2-.853.589-1.054 1.088-.058.142-.102.34-.126.702a26 26 0 0 0-.025 1.538v1.546c0 .324 0 .43.008.51.085.992.844 1.746 1.76 1.83.075.007.173.008.49.008zm.574-9.172 1.266-1.055c.957-.797 1.716-1.43 2.338-1.871.614-.437 1.22-.783 1.863-.861a3.71 3.71 0 0 1 3.61 1.764c.337.55.456 1.24.513 2.004.057.773.057 1.776.057 3.045v4.712c0 1.161 0 2.084-.053 2.801-.054.716-.166 1.36-.479 1.893a3.72 3.72 0 0 1-3.423 1.849c-.619-.037-1.21-.312-1.815-.672-.607-.361-1.349-.884-2.279-1.54l-1.557-1.097H14.9v3.47c0 1.933-1.53 3.544-3.47 3.544a3.33 3.33 0 0 1-1.874-.57c-1.247-.846-2.153-1.615-2.681-2.799-.433-.968-.576-2.137-.609-3.69-1.704-.268-3-1.695-3.152-3.438-.014-.169-.014-.358-.014-.623v-1.619c0-.654 0-1.189.029-1.626.03-.451.094-.862.252-1.256A3.78 3.78 0 0 1 5.4 7.208c.391-.167.799-.233 1.242-.264.427-.03.95-.03 1.584-.03zM8.068 17.886c.036 1.438.17 2.283.45 2.912.315.704.86 1.237 2.049 2.043.248.169.549.259.863.259.898 0 1.67-.757 1.67-1.744v-3.47z" clip-rule="evenodd"/></svg>
